svgs/thin/square-down.svg

<svg xmlns="http://www.w3.org/2000/svg" viewBox="0 0 448 512"><!-- Font Awesome Pro 6.0.0-alpha2 by @fontawesome - https://fontawesome.com License - https://fontawesome.com/license (Commercial License) --><path d="M384 32H64C28.654 32 0 60.652 0 96V416C0 451.346 28.654 480 64 480H384C419.346 480 448 451.346 448 416V96C448 60.652 419.346 32 384 32ZM432 416C432 442.467 410.467 464 384 464H64C37.533 464 16 442.467 16 416V96C16 69.533 37.533 48 64 48H384C410.467 48 432 69.533 432 96V416ZM316.684 256H272V152C272 138.744 261.254 128 248 128H200C186.746 128 176 138.744 176 152V256H131.316C109.934 256 99.227 281.852 114.346 296.971L207.029 389.654C211.717 394.34 217.857 396.684 224 396.684S236.283 394.34 240.971 389.654L333.654 296.971C348.773 281.852 338.066 256 316.684 256ZM322.34 285.656L229.656 378.34C227.617 380.379 225.238 380.684 224 380.684S220.383 380.379 218.344 378.34L125.66 285.656C122.248 282.244 123.311 278.424 123.924 276.938C124.539 275.453 126.492 272 131.316 272H192V152C192 147.588 195.588 144 200 144H248C252.412 144 256 147.588 256 152V272H316.684C321.508 272 323.461 275.453 324.076 276.938C324.689 278.424 325.752 282.244 322.34 285.656Z"/></svg>

<svg xmlns="http://www.w3.org/2000/svg" viewBox="0 0 448 512"><!--! Font Awesome Pro 6.3.0 by @fontawesome - https://fontawesome.com License - https://fontawesome.com/license (Commercial License) Copyright 2023 Fonticons, Inc. --><path d="M384 32H64C28.65 32 0 60.65 0 96v320c0 35.35 28.65 64 64 64h320c35.35 0 64-28.65 64-64V96C448 60.65 419.3 32 384 32zM432 416c0 26.47-21.53 48-48 48H64c-26.47 0-48-21.53-48-48V96c0-26.47 21.53-48 48-48h320c26.47 0 48 21.53 48 48V416zM316.7 256H272V152C272 138.7 261.3 128 248 128h-48C186.7 128 176 138.7 176 152V256H131.3C109.9 256 99.23 281.9 114.3 296.1l92.68 92.68C211.7 394.3 217.9 396.7 224 396.7s12.28-2.344 16.97-7.029l92.68-92.68C348.8 281.9 338.1 256 316.7 256zM322.3 285.7l-92.68 92.68C227.6 380.4 225.2 380.7 224 380.7s-3.617-.3047-5.656-2.344L125.7 285.7C122.2 282.2 123.3 278.4 123.9 276.9C124.5 275.5 126.5 272 131.3 272H192V152C192 147.6 195.6 144 200 144h48C252.4 144 256 147.6 256 152V272h60.68c4.824 0 6.777 3.453 7.393 4.938C324.7 278.4 325.8 282.2 322.3 285.7z"/></svg>
